img/icons/mono/icon-gos.svg

<svg width="130" height="36" viewBox="0 0 130 36" fill="none" xmlns="http://www.w3.org/2000/svg">
<path d="M44.0622 21.1804C44.0473 21.1425 44.0179 21.1104 43.9795 21.0928C43.941 21.0754 43.8967 21.0754 43.8584 21.0871C43.1735 21.3379 42.038 21.5421 41.1435 21.5421C39.1861 21.5421 38.2532 21.0199 38.2532 18.0538C38.2532 15.6828 38.5396 14.5657 41.1435 14.5657C41.8816 14.5657 42.7748 14.6707 43.6457 14.9215C43.7165 14.9419 43.7933 14.9099 43.8258 14.8457C44.0673 14.3204 44.4182 13.4707 44.6764 12.8453C44.7121 12.7588 44.7461 12.6765 44.7776 12.6C44.7984 12.5591 44.7984 12.5125 44.7807 12.4716C44.7629 12.4308 44.7275 12.3987 44.6832 12.3841C43.5377 12.0225 42.1709 11.8125 40.9397 11.8125C36.839 11.8125 35.0117 13.7228 35.0117 18.0102C35.0117 22.3587 36.839 24.2982 40.9397 24.2982C41.9672 24.2982 43.9924 24.0853 44.9696 23.7003C45.0463 23.6682 45.0877 23.5808 45.0581 23.5049L44.0622 21.1804Z" fill="#0066B3"/>
<path d="M12.3438 12.2848C12.3438 12.2033 12.4104 12.1372 12.4925 12.1372H20.9139C21.0191 12.1372 21.0902 12.2447 21.0493 12.3418L20.0064 14.8217C19.9788 14.8872 19.9159 14.917 19.856 14.9111C19.8512 14.9116 19.8462 14.9118 19.8412 14.9118H15.4974V23.8259C15.4974 23.9075 15.4309 23.9735 15.3487 23.9735H12.4925C12.4104 23.9735 12.3438 23.9075 12.3438 23.8259V12.2848Z" fill="#0066B3"/>
<path fill-rule="evenodd" clip-rule="evenodd" d="M21.7559 18.0096C21.7559 13.5498 23.3169 11.8125 27.3259 11.8125C31.367 11.8125 32.9426 13.5498 32.9426 18.0096C32.9426 22.5372 31.367 24.2982 27.3259 24.2982C23.3169 24.2982 21.7559 22.5372 21.7559 18.0096ZM24.9305 18.0538C24.9305 21.1981 25.4993 21.6996 27.3259 21.6996C29.1875 21.6996 29.768 21.1981 29.768 18.0538C29.768 14.7061 29.1348 14.4082 27.3259 14.4082C25.5519 14.4082 24.9305 14.7061 24.9305 18.0538Z" fill="#0066B3"/>
<path d="M68.0543 21.1804C68.0396 21.1425 68.0101 21.1104 67.9717 21.0928C67.9334 21.0754 67.8891 21.0754 67.8507 21.0871C67.1657 21.3379 66.0302 21.5421 65.1358 21.5421C63.1784 21.5421 62.2455 21.0199 62.2455 18.0538C62.2455 15.6828 62.5319 14.5657 65.1358 14.5657C65.8738 14.5657 66.767 14.6707 67.638 14.9215C67.7088 14.9419 67.7855 14.9099 67.818 14.8457C68.0597 14.3204 68.4105 13.4707 68.6687 12.8453C68.7043 12.7588 68.7383 12.6765 68.77 12.6C68.7906 12.5591 68.7906 12.5125 68.773 12.4716C68.7553 12.4308 68.7198 12.3987 68.6755 12.3841C67.5301 12.0225 66.1632 11.8125 64.9321 11.8125C60.8314 11.8125 59.0039 13.7228 59.0039 18.0102C59.0039 22.3587 60.8314 24.2982 64.9321 24.2982C65.9594 24.2982 67.9848 24.0853 68.9619 23.7003C69.0387 23.6682 69.0801 23.5808 69.0505 23.5049L68.0543 21.1804Z" fill="#EE2F53"/>
<path d="M70.5536 23.9735H73.4868C73.5491 23.9735 73.6086 23.9321 73.6265 23.8732C74.0781 22.4651 74.4793 20.8801 74.8182 19.1327C75.1094 17.6408 75.2871 16.2274 75.3927 14.9118H78.2598V23.8259C78.2598 23.9074 78.3263 23.9735 78.4085 23.9735H81.2647C81.3469 23.9735 81.4135 23.9074 81.4135 23.8259V12.2848C81.4135 12.2033 81.3469 12.1372 81.2647 12.1372H72.5477C72.4675 12.1372 72.4021 12.1992 72.3991 12.2789C72.3189 14.0469 72.1286 16.0276 71.7661 18.1763C71.4125 20.2544 70.9013 22.1287 70.4109 23.7845C70.3842 23.879 70.4555 23.9735 70.5536 23.9735Z" fill="#EE2F53"/>
<path d="M97.1331 12.1372C97.0511 12.1372 96.9844 12.2033 96.9844 12.2848V23.8259C96.9844 23.9074 97.0511 23.9735 97.1331 23.9735H99.9893C100.071 23.9735 100.138 23.9074 100.138 23.8259V14.9118H104.482C104.487 14.9118 104.492 14.9115 104.497 14.9111C104.557 14.917 104.62 14.8872 104.647 14.8217L105.69 12.3418C105.731 12.2447 105.66 12.1372 105.554 12.1372H97.1331Z" fill="#EE2F53"/>
<path d="M46.4289 12.1372C46.3258 12.1372 46.254 12.238 46.2894 12.3331L50.6291 23.9754C50.0167 25.2527 49.3364 26.5971 48.5583 28.0958C48.5073 28.1939 48.5783 28.3125 48.6897 28.3125H51.7768C51.8329 28.3125 51.8846 28.2806 51.91 28.2311C54.1942 23.6193 55.8752 19.5312 58.1735 12.3322C58.2049 12.2371 58.1339 12.1372 58.0328 12.1372H55.1654C55.0988 12.1372 55.0401 12.1821 55.0218 12.2455C54.1371 15.3231 53.3212 17.7321 52.3756 20.0537L49.4604 12.2329C49.439 12.1754 49.3832 12.1372 49.3209 12.1372H46.4289Z" fill="#EE2F53"/>
<path d="M83.2064 12.3331C83.171 12.2379 83.2427 12.1372 83.3459 12.1372H86.2378C86.3001 12.1372 86.3559 12.1754 86.3773 12.2329L89.2924 20.0537C90.2381 17.732 91.0539 15.3232 91.9388 12.2455C91.957 12.1821 92.0158 12.1372 92.0824 12.1372H94.9497C95.0508 12.1372 95.1217 12.2371 95.0905 12.3322C92.7921 19.5311 91.1111 23.6192 88.8268 28.2311C88.8015 28.2806 88.7498 28.3124 88.6937 28.3124H85.6066C85.4951 28.3124 85.4242 28.1939 85.4751 28.0958C86.2532 26.5972 86.9336 25.2527 87.5459 23.9753L83.2064 12.3331Z" fill="#EE2F53"/>
<path d="M114.657 12.1372H117.511C117.595 12.1372 117.66 12.202 117.657 12.2845V23.1496C117.657 23.2144 117.618 23.2732 117.556 23.2939C116.233 23.7946 114.003 24.2981 112.004 24.2981C108.582 24.2981 107.196 22.8137 107.128 19.0232C107.125 19.0144 107.125 12.3021 107.125 12.3021V12.2845C107.125 12.202 107.19 12.1372 107.274 12.1372H110.128C110.211 12.1372 110.277 12.202 110.277 12.2845V18.9584C110.342 20.9729 110.845 21.4561 112.575 21.4561C113.271 21.4561 113.89 21.3736 114.508 21.2027V12.2845C114.508 12.202 114.573 12.1372 114.657 12.1372Z" fill="#EE2F53"/>
</svg>

<svg width="130" height="36" fill="none" xmlns="http://www.w3.org/2000/svg"><path d="M44.062 21.18a.162.162 0 00-.082-.087.174.174 0 00-.122-.006c-.684.25-1.82.455-2.714.455-1.958 0-2.89-.522-2.89-3.488 0-2.371.286-3.488 2.89-3.488.738 0 1.63.105 2.502.355.07.02.147-.011.18-.075a68.14 68.14 0 00.85-2l.102-.246a.15.15 0 00.003-.128.16.16 0 00-.098-.088 12.975 12.975 0 00-3.743-.572c-4.101 0-5.928 1.91-5.928 6.198 0 4.349 1.827 6.288 5.928 6.288 1.027 0 3.052-.213 4.03-.598a.155.155 0 00.088-.195l-.996-2.325zm-31.718-8.895c0-.082.066-.148.149-.148h8.42c.106 0 .177.108.136.205l-1.043 2.48a.145.145 0 01-.15.09h-4.359v8.914a.148.148 0 01-.148.148h-2.857a.148.148 0 01-.148-.148V12.285z" fill="#0066B3"/><path fill-rule="evenodd" clip-rule="evenodd" d="M21.756 18.01c0-4.46 1.56-6.198 5.57-6.198 4.041 0 5.617 1.738 5.617 6.198 0 4.527-1.576 6.288-5.617 6.288-4.01 0-5.57-1.76-5.57-6.288zm3.174.044c0 3.144.57 3.646 2.396 3.646 1.861 0 2.442-.502 2.442-3.646 0-3.348-.633-3.646-2.442-3.646-1.774 0-2.396.298-2.396 3.646z" fill="#0066B3"/><path d="M68.054 21.18a.16.16 0 00-.082-.087.174.174 0 00-.121-.006c-.685.25-1.82.455-2.715.455-1.958 0-2.89-.522-2.89-3.488 0-2.371.286-3.488 2.89-3.488.738 0 1.631.105 2.502.355.07.02.147-.011.18-.075.242-.526.593-1.375.85-2l.102-.246c.02-.04.02-.088.003-.128a.16.16 0 00-.097-.088 12.974 12.974 0 00-3.744-.572c-4.1 0-5.928 1.91-5.928 6.198 0 4.349 1.827 6.288 5.928 6.288 1.027 0 3.053-.213 4.03-.598a.155.155 0 00.088-.195l-.996-2.325zm2.5 2.794h2.933a.148.148 0 00.14-.1 41.423 41.423 0 001.191-4.741c.291-1.492.47-2.906.575-4.221h2.867v8.914c0 .081.066.148.148.148h2.857a.148.148 0 00.148-.148V12.285a.148.148 0 00-.148-.148h-8.717a.147.147 0 00-.149.142 48.764 48.764 0 01-.633 5.897c-.354 2.078-.865 3.953-1.355 5.609a.149.149 0 00.143.189zm26.579-11.837a.148.148 0 00-.149.148v11.54a.15.15 0 00.15.149h2.855a.148.148 0 00.149-.148v-8.914h4.359a.144.144 0 00.15-.09l1.043-2.48a.147.147 0 00-.136-.205h-8.42zm-50.704 0a.147.147 0 00-.14.196l4.34 11.642a145.478 145.478 0 01-2.07 4.12.148.148 0 00.13.218h3.088a.15.15 0 00.133-.082c2.284-4.612 3.965-8.7 6.264-15.899a.149.149 0 00-.141-.195h-2.868a.15.15 0 00-.143.108c-.885 3.078-1.7 5.487-2.646 7.809l-2.916-7.821a.148.148 0 00-.14-.096h-2.89zm36.777.196a.146.146 0 01.14-.196h2.892a.15.15 0 01.14.096l2.914 7.82c.946-2.321 1.762-4.73 2.647-7.808a.15.15 0 01.143-.108h2.868c.1 0 .172.1.14.195-2.298 7.2-3.979 11.287-6.263 15.9a.15.15 0 01-.133.08h-3.087a.148.148 0 01-.132-.216 144.943 144.943 0 002.07-4.12l-4.339-11.643zm31.451-.196h2.854c.084 0 .149.065.146.147V23.15a.15.15 0 01-.101.144c-1.323.5-3.553 1.004-5.552 1.004-3.422 0-4.808-1.484-4.876-5.275-.003-.009-.003-6.72-.003-6.72v-.019c0-.082.065-.147.149-.147h2.854c.083 0 .149.065.149.147v6.674c.065 2.015.568 2.498 2.298 2.498.696 0 1.315-.082 1.933-.253v-8.918c0-.083.065-.148.149-.148z" fill="#EE2F53"/></svg>
